_includes/icons/color-download.svg

<svg fill="#666" height="50" viewBox="0 0 48 48" width="50" xmlns="http://www.w3.org/2000/svg"><g fill="#1565c0"><path d="m24 37.101563-11-13.101563h22z"/><path d="m20 4h8v4h-8z"/><path d="m20 10h8v4h-8z"/><path d="m20 16h8v11h-8z"/><path d="m6 40h36v4h-36z"/></g></svg>

<svg xmlns="http://www.w3.org/2000/svg" viewBox="0 0 48 48" width="50" height="50" fill="#666"><g fill="#1565c0"><path d="M 24 37.101563 L 13 24 L 35 24 Z"/><path d="M 20 4 L 28 4 L 28 8 L 20 8 Z"/><path d="M 20 10 L 28 10 L 28 14 L 20 14 Z"/><path d="M 20 16 L 28 16 L 28 27 L 20 27 Z"/><path d="M 6 40 L 42 40 L 42 44 L 6 44 Z"/></g></svg>
